X: 117
T: The highlander
C: anon.
O: Ireland
B: Francis O'Neill: "The Dance Music of Ireland" (1907) no. 117
R: Double jig
Z: Transcribed by Frank Nordberg - http://www.musicaviva.com
F: http://www.musicaviva.com/abc/tunes/ireland/oneill-1001/oneill-1001-011
7.abc
M: 6/8
L: 1/8
K: Amix
(g/f/)W|e2A ABA|e2A Bcd|e2A ABA|dBG Bcd|e2A g2A|e2A Bcd|ede g2e|dBG GBd:|


